poi/svg/1103.svg

<?xml version="1.0" encoding="UTF-8" standalone="no"?>
<svg
   xmlns:dc="http://purl.org/dc/elements/1.1/"
   xmlns:cc="http://creativecommons.org/ns#"
   xmlns:rdf="http://www.w3.org/1999/02/22-rdf-syntax-ns#"
   xmlns:svg="http://www.w3.org/2000/svg"
   xmlns="http://www.w3.org/2000/svg"
   xmlns:sodipodi="http://sodipodi.sourceforge.net/DTD/sodipodi-0.dtd"
   xmlns:inkscape="http://www.inkscape.org/namespaces/inkscape"
   inkscape:version="1.0 (4035a4fb49, 2020-05-01)"
   sodipodi:docname="1103.svg"
   id="svg20"
   version="1.2"
   viewBox="0 0 42.519639 42.519639"
   height="14.999999mm"
   width="14.999999mm">
  <metadata
     id="metadata24">
    <rdf:RDF>
      <cc:Work
         rdf:about="">
        <dc:format>image/svg+xml</dc:format>
        <dc:type
           rdf:resource="http://purl.org/dc/dcmitype/StillImage" />
        <dc:title>Qt SVG Document</dc:title>
      </cc:Work>
    </rdf:RDF>
  </metadata>
  <sodipodi:namedview
     inkscape:current-layer="svg20"
     inkscape:window-maximized="0"
     inkscape:window-y="0"
     inkscape:window-x="0"
     inkscape:cy="55.7388"
     inkscape:cx="28.346482"
     inkscape:zoom="5.8410537"
     fit-margin-bottom="0"
     fit-margin-right="0"
     fit-margin-left="0"
     fit-margin-top="0"
     showgrid="false"
     id="namedview22"
     inkscape:window-height="480"
     inkscape:window-width="1034"
     inkscape:pageshadow="2"
     inkscape:pageopacity="0"
     guidetolerance="10"
     gridtolerance="10"
     objecttolerance="10"
     borderopacity="1"
     bordercolor="#666666"
     pagecolor="#ffffff" />
  <title
     id="title2">Qt SVG Document</title>
  <desc
     id="desc4">Generated with Qt</desc>
  <defs
     id="defs6" />
  <g
     transform="translate(5.25984,5.25984)"
     id="g18"
     stroke-linejoin="bevel"
     stroke-linecap="square"
     fill-rule="evenodd"
     stroke-width="1"
     stroke="#000000"
     fill="none">
    <g
       id="g10"
       font-style="normal"
       font-weight="400"
       font-size="7.8px"
       font-family="'MS Shell Dlg 2'"
       stroke="none"
       fill-opacity="1"
       fill="#3d97f1">
      <path
         id="path8"
         d="M 37.2598,16 C 37.2598,27.7415 27.7415,37.2598 16,37.2598 4.25851,37.2598 -5.25984,27.7415 -5.25984,16 -5.25984,4.25851 4.25851,-5.25984 16,-5.25984 27.7415,-5.25984 37.2598,4.25851 37.2598,16"
         fill-rule="evenodd"
         vector-effect="non-scaling-stroke" />
    </g>
    <g
       id="g14"
       font-style="normal"
       font-weight="400"
       font-size="7.8px"
       font-family="'MS Shell Dlg 2'"
       transform="translate(16,12.5984)"
       stroke="none"
       fill-opacity="0.94902"
       fill="#ffffff">
      <path
         id="path12"
         d="M -8.5542,0.288574 -9.20508,4.40381 C -9.26107,4.69775 -9.40104,4.90072 -9.625,5.0127 c -0.22396,0.13997 -0.4444,0.18896 -0.6614,0.14697 -0.2169,-0.04199 -0.3954,-0.17497 -0.5354,-0.39893 -0.1539,-0.18196 -0.1959,-0.42692 -0.126,-0.73486 l 0.7139,-4.430177 c 0,-0.293945 0.133,-0.510905 0.39894,-0.650883 l 3.61133,-2.26757 c 0.27995,-0.18197 0.56689,-0.23096 0.86084,-0.14698 l 4.11523,0.98682 4.22022,-0.04199 c 0.05599,0.02799 0.11198,0.04199 0.16797,0.04199 0.05598,0 0.11197,0.03499 0.16796,0.10498 l 4.8711,-4.91309 1.0708,-0.04199 -5.45899,5.45899 c 0.11198,0.34993 0.042,0.65088 -0.20996,0.902829 -0.11198,0.139974 -0.28694,0.237955 -0.5249,0.293945 H 2.59473 l -5.45899,5.479976 -0.5249,-0.5249 4.93408,-4.955076 -2.267576,0.062988 C -1.0446,-0.586263 -1.35604,-0.610758 -1.65698,-0.687744 -1.95793,-0.76473 -2.24837,-0.831217 -2.52832,-0.887207 -2.85026,-0.971191 -3.1652,-1.06917 -3.47314,-1.18115 l -0.94483,5.50097 c 0.22396,0.19597 0.45492,0.38493 0.69287,0.5669 0.19597,0.16797 0.41642,0.34643 0.66138,0.5354 0.24495,0.18896 0.49341,0.39543 0.74536,0.61938 0.40593,0.34994 0.75236,0.65788 1.03931,0.92383 0.286944,0.26595 0.458412,0.51791 0.514402,0.75586 L 1.29297,13.4741 c 0.08398,0.266 0.08398,0.5284 0,0.7874 -0.08399,0.2589 -0.23796,0.4584 -0.461915,0.5984 -0.265951,0.1679 -0.556397,0.2169 -0.8713382,0.1469 C -0.355225,14.9368 -0.59668,14.7689 -0.764648,14.5029 -0.820638,14.391 -0.848633,14.307 -0.848633,14.251 L -2.52832,9.48486 C -3.1862,8.96696 -3.80208,8.47705 -4.37598,8.01514 -4.86589,7.62321 -5.35579,7.24528 -5.8457,6.88135 -6.33561,6.51742 -6.69255,6.23747 -6.9165,6.0415 -7.19645,5.81755 -7.4589,5.5481 -7.70386,5.23315 -7.94881,4.91821 -8.04329,4.50179 -7.9873,3.98389 -7.93132,3.66195 -7.86133,3.24202 -7.77734,2.72412 -7.69336,2.20622 -7.60938,1.70931 -7.52539,1.2334 -7.39941,0.659505 -7.29443,0.0576172 -7.21045,-0.572266 L -8.5542,0.288574 M 9.37646,15.5527 c 0.05599,0 0.12598,-0.077 0.20997,-0.2309 0.06998,-0.084 0.11897,-0.168 0.14697,-0.252 h 0.7559 c -0.028,0.196 -0.098,0.385 -0.21,0.5669 -0.084,0.14 -0.189,0.273 -0.31494,0.3989 -0.12598,0.126 -0.30795,0.203 -0.5459,0.231 l -18.43457,0.042 V 15.5947 L 9.37646,15.5527 M -4.12402,-4.05762 c -0.40593,0.25196 -0.85035,0.32194 -1.33326,0.20996 -0.48291,-0.11198 -0.85734,-0.37093 -1.12329,-0.77685 -0.25195,-0.40593 -0.32194,-0.84334 -0.20996,-1.31226 0.11198,-0.46891 0.37093,-0.83634 0.77686,-1.10229 0.40592,-0.25196 0.85034,-0.32194 1.33325,-0.20996 0.48291,0.11198 0.85734,0.37093 1.12329,0.77685 0.25195,0.40593 0.32194,0.84335 0.20996,1.31226 -0.11198,0.46891 -0.37093,0.83634 -0.77685,1.10229 m -7.22268,8.71338 0.7349,0.94483 -3.1914,2.33056 V 7.1123 l 2.2466,-1.72167 -2.1626,0.31494 -0.042,-0.73487 2.4145,-0.31494 M -7.65137,7.28027 -6.9165,6.46143 -5.02686,8.2251 -5.76172,9.04395 -7.65137,7.28027 M 12.9878,12.6553 c 0.056,0.4899 -0.0735,0.9378 -0.3884,1.3437 -0.315,0.4059 -0.7174,0.6369 -1.2073,0.6929 l -0.5039,0.084 0.042,-0.357 -1.42776,0.042 -0.12598,0.441 -3.44335,0.4199 -3.38038,-0.042 0.25196,-0.336 8.50341,-0.9868 c 0.3219,-0.056 0.5774,-0.1994 0.7664,-0.4304 0.1889,-0.2309 0.2484,-0.5074 0.1784,-0.8293 l 0.7349,-0.042 M -3.09521,9.61084 -1.5835,13.7471 c -0.05599,0.2519 -0.17846,0.4724 -0.36743,0.6613 -0.18896,0.189 -0.42342,0.2835 -0.70337,0.2835 -0.32194,0.028 -0.58789,-0.0665 -0.79785,-0.2835 -0.20996,-0.2169 -0.33594,-0.4864 -0.37793,-0.8083 0,-0.14 0.021,-0.238 0.06299,-0.2939 l 0.67188,-3.69536"
         fill-rule="evenodd"
         vector-effect="none" />
    </g>
    <g
       id="g16"
       font-style="normal"
       font-weight="400"
       font-size="7.8px"
       font-family="'MS Shell Dlg 2'"
       stroke="none"
       fill-opacity="1"
       fill="#3d97f1" />
  </g>
</svg>

<?xml version="1.0" encoding="UTF-8" standalone="no"?>
<svg width="11.2889mm" height="11.2889mm"
 viewBox="0 0 32 32"
 xmlns="http://www.w3.org/2000/svg" xmlns:xlink="http://www.w3.org/1999/xlink"  version="1.2" baseProfile="tiny">
<title>Qt SVG Document</title>
<desc>Generated with Qt</desc>
<defs>
</defs>
<g fill="none" stroke="black" stroke-width="1" fill-rule="evenodd" stroke-linecap="square" stroke-linejoin="bevel" >

<g fill="#3d97f1" fill-opacity="1" stroke="none" transform="matrix(1,0,0,1,0,0)"
font-family="MS Shell Dlg 2" font-size="7.8" font-weight="400" font-style="normal" 
>
<path vector-effect="non-scaling-stroke" fill-rule="evenodd" d="M37.2598,16 C37.2598,27.7415 27.7415,37.2598 16,37.2598 C4.25851,37.2598 -5.25984,27.7415 -5.25984,16 C-5.25984,4.25851 4.25851,-5.25984 16,-5.25984 C27.7415,-5.25984 37.2598,4.25851 37.2598,16 "/>
</g>

<g fill="#ffffff" fill-opacity="0.94902" stroke="none" transform="matrix(1,0,0,1,16,12.5984)"
font-family="MS Shell Dlg 2" font-size="7.8" font-weight="400" font-style="normal" 
>
<path vector-effect="none" fill-rule="evenodd" d="M-8.5542,0.288574 L-9.20508,4.40381 C-9.26107,4.69775 -9.40104,4.90072 -9.625,5.0127 C-9.84896,5.15267 -10.0694,5.20166 -10.2864,5.15967 C-10.5033,5.11768 -10.6818,4.9847 -10.8218,4.76074 C-10.9757,4.57878 -11.0177,4.33382 -10.9478,4.02588 L-10.2339,-0.404297 C-10.2339,-0.698242 -10.1009,-0.915202 -9.83496,-1.05518 L-6.22363,-3.32275 C-5.94368,-3.50472 -5.65674,-3.55371 -5.36279,-3.46973 L-1.24756,-2.48291 L2.97266,-2.5249 C3.02865,-2.49691 3.08464,-2.48291 3.14063,-2.48291 C3.19661,-2.48291 3.2526,-2.44792 3.30859,-2.37793 L8.17969,-7.29102 L9.25049,-7.33301 L3.7915,-1.87402 C3.90348,-1.52409 3.8335,-1.22314 3.58154,-0.971191 C3.46956,-0.831217 3.2946,-0.733236 3.05664,-0.677246 L2.59473,-0.677246 L-2.86426,4.80273 L-3.38916,4.27783 L1.54492,-0.677246 L-0.722656,-0.614258 C-1.0446,-0.586263 -1.35604,-0.610758 -1.65698,-0.687744 C-1.95793,-0.76473 -2.24837,-0.831217 -2.52832,-0.887207 C-2.85026,-0.971191 -3.1652,-1.06917 -3.47314,-1.18115 L-4.41797,4.31982 C-4.19401,4.51579 -3.96305,4.70475 -3.7251,4.88672 C-3.52913,5.05469 -3.30868,5.23315 -3.06372,5.42212 C-2.81877,5.61108 -2.57031,5.81755 -2.31836,6.0415 C-1.91243,6.39144 -1.566,6.69938 -1.27905,6.96533 C-0.992106,7.23128 -0.820638,7.48324 -0.764648,7.72119 L1.29297,13.4741 C1.37695,13.7401 1.37695,14.0025 1.29297,14.2615 C1.20898,14.5204 1.05501,14.7199 0.831055,14.8599 C0.565104,15.0278 0.274658,15.0768 -0.0402832,15.0068 C-0.355225,14.9368 -0.59668,14.7689 -0.764648,14.5029 C-0.820638,14.391 -0.848633,14.307 -0.848633,14.251 L-2.52832,9.48486 C-3.1862,8.96696 -3.80208,8.47705 -4.37598,8.01514 C-4.86589,7.62321 -5.35579,7.24528 -5.8457,6.88135 C-6.33561,6.51742 -6.69255,6.23747 -6.9165,6.0415 C-7.19645,5.81755 -7.4589,5.5481 -7.70386,5.23315 C-7.94881,4.91821 -8.04329,4.50179 -7.9873,3.98389 C-7.93132,3.66195 -7.86133,3.24202 -7.77734,2.72412 C-7.69336,2.20622 -7.60938,1.70931 -7.52539,1.2334 C-7.39941,0.659505 -7.29443,0.0576172 -7.21045,-0.572266 L-8.5542,0.288574 M9.37646,15.5527 C9.43245,15.5527 9.50244,15.4757 9.58643,15.3218 C9.65641,15.2378 9.7054,15.1538 9.7334,15.0698 L10.4893,15.0698 C10.4613,15.2658 10.3913,15.4548 10.2793,15.6367 C10.1953,15.7767 10.0903,15.9097 9.96436,16.0356 C9.83838,16.1616 9.65641,16.2386 9.41846,16.2666 L-9.01611,16.3086 L-9.01611,15.5947 L9.37646,15.5527 M-4.12402,-4.05762 C-4.52995,-3.80566 -4.97437,-3.73568 -5.45728,-3.84766 C-5.94019,-3.95964 -6.31462,-4.21859 -6.58057,-4.62451 C-6.83252,-5.03044 -6.90251,-5.46785 -6.79053,-5.93677 C-6.67855,-6.40568 -6.4196,-6.77311 -6.01367,-7.03906 C-5.60775,-7.29102 -5.16333,-7.361 -4.68042,-7.24902 C-4.19751,-7.13704 -3.82308,-6.87809 -3.55713,-6.47217 C-3.30518,-6.06624 -3.23519,-5.62882 -3.34717,-5.15991 C-3.45915,-4.691 -3.7181,-4.32357 -4.12402,-4.05762 M-11.3467,4.65576 L-10.6118,5.60059 L-13.8032,7.93115 L-13.8032,7.1123 L-11.5566,5.39063 L-13.7192,5.70557 L-13.7612,4.9707 L-11.3467,4.65576 M-7.65137,7.28027 L-6.9165,6.46143 L-5.02686,8.2251 L-5.76172,9.04395 L-7.65137,7.28027 M12.9878,12.6553 C13.0438,13.1452 12.9143,13.5931 12.5994,13.999 C12.2844,14.4049 11.882,14.6359 11.3921,14.6919 L10.8882,14.7759 L10.9302,14.4189 L9.50244,14.4609 L9.37646,14.9019 L5.93311,15.3218 L2.55273,15.2798 L2.80469,14.9438 L11.3081,13.957 C11.63,13.901 11.8855,13.7576 12.0745,13.5266 C12.2634,13.2957 12.3229,13.0192 12.2529,12.6973 L12.9878,12.6553 M-3.09521,9.61084 L-1.5835,13.7471 C-1.63949,13.999 -1.76196,14.2195 -1.95093,14.4084 C-2.13989,14.5974 -2.37435,14.6919 -2.6543,14.6919 C-2.97624,14.7199 -3.24219,14.6254 -3.45215,14.4084 C-3.66211,14.1915 -3.78809,13.922 -3.83008,13.6001 C-3.83008,13.4601 -3.80908,13.3621 -3.76709,13.3062 L-3.09521,9.61084"/>
</g>

<g fill="#3d97f1" fill-opacity="1" stroke="none" transform="matrix(1,0,0,1,0,0)"
font-family="MS Shell Dlg 2" font-size="7.8" font-weight="400" font-style="normal" 
>
</g>
</g>
</svg>
